src/topics/icons/loader.svg

<svg height="247" preserveAspectRatio="xMidYMid" viewBox="0 0 256 247" width="256" xmlns="http://www.w3.org/2000/svg"><g fill="#497bbb"><path d="m165.758529 82.9512863 58.343899 108.0294777-19.343343 28.728048h-153.4150412l-19.4778588-29.301981 58.3349316-107.4555447zm16.047711-26.9031199h-107.6124797l-73.70109692 135.7621106 36.43130812 54.801655h182.1520565l36.431309-54.102174z"/><path d="m163.870826 145.725233h-42.596606l15.693487-42.596607h-24.661194l-33.5437062 67.455089h98.4743862z"/><path d="m9.17788725 192.805692 44.83853315 40.35468h152.4510126l44.838533-40.35468z"/><path d="m128 0c-20.011437 0-36.2340186 16.2808714-36.2340186 36.3685342 0 2.1298303.2197088 4.2013706.5694494 6.2280723h23.0245872c-.928158-1.8877023-1.493124-3.9816618-1.493124-6.2280723 0-7.8332917 6.326717-14.182428 14.128622-14.182428 7.806389 0 14.128622 6.3491363 14.128622 14.182428 0 2.2464105-.569449 4.34037-1.493123 6.2280723h23.02907c.349741-2.0267017.56945-4.1027258.56945-6.2280723.004484-20.0876628-16.218098-36.3685342-36.229535-36.3685342z"/></g></svg>

<?xml version="1.0" encoding="UTF-8" standalone="no"?>
<svg width="256px" height="247px" viewBox="0 0 256 247" version="1.1" xmlns="http://www.w3.org/2000/svg" xmlns:xlink="http://www.w3.org/1999/xlink" preserveAspectRatio="xMidYMid">
	<g fill="#497BBB">
		<path d="M165.758529,82.9512863 L224.102428,190.980764 L204.759085,219.708812 L51.3440438,219.708812 L31.866185,190.406831 L90.2011166,82.9512863 L165.758529,82.9512863 L165.758529,82.9512863 Z M181.80624,56.0481664 L74.1937603,56.0481664 L0.492663383,191.810277 L36.9239715,246.611932 L219.076028,246.611932 L255.507337,192.509758 L181.80624,56.0481664 L181.80624,56.0481664 Z"></path>
		<path d="M163.870826,145.725233 L121.27422,145.725233 L136.967707,103.128626 L112.306513,103.128626 L78.7628068,170.583715 L177.237193,170.583715 L163.870826,145.725233 Z"></path>
		<path d="M9.17788725,192.805692 L54.0164204,233.160372 L206.467433,233.160372 L251.305966,192.805692 L9.17788725,192.805692 Z"></path>
		<path d="M128,0 C107.988563,0 91.7659814,16.2808714 91.7659814,36.3685342 C91.7659814,38.4983645 91.9856902,40.5699048 92.3354308,42.5966065 L115.360018,42.5966065 C114.43186,40.7089042 113.866894,38.6149447 113.866894,36.3685342 C113.866894,28.5352425 120.193611,22.1861062 127.995516,22.1861062 C135.801905,22.1861062 142.124138,28.5352425 142.124138,36.3685342 C142.124138,38.6149447 141.554689,40.7089042 140.631015,42.5966065 L163.660085,42.5966065 C164.009826,40.5699048 164.229535,38.4938807 164.229535,36.3685342 C164.234019,16.2808714 148.011437,0 128,0 L128,0 Z"></path>
	</g>
</svg>
